X:1
T:Polska
T:efter Alfred Petersson, Nttraby, Blekinge (SvL, Band 18, nr 284)
S:Svenska Ltar
O:Nttraby, Blekinge
N:Svenska Ltar, Band 18 nr 284
R:Polska
C:Alfred Petersson
M:3/4
L:1/16
Q:1/4=100
Z:Konverterad till abc-format av  Olle Paulsson 05-01-03
K:A
A2A2 A2A2 c2A2|(Af)ed (cd)Bc c4|A2A2 A2A2 c2A2|(Af)ed (cd)Bc c4|
a2ag a2bg a2af|edcB B2A2 A4::A2f2 A2f2 fagf|a2e2 e2c2 eaec|
A2f2 A2f2 fagf|a2e2 e2c2 eaec|
a2ag a2bg a2af|edcB B2A2 A4:|
